X: 78
T: Reel of the Royal Scots
T: 8 x 32 R 3C (Roy Goldring, RSCDS leaflet)
%
P: Reel of the Royal Scots
R:reel
C:P/M C.T. Clark, from B. McOwen
O:arr. T. Traub 8-23-2004
M:4/4
L:1/8
K:D
f2|"D"Adde de f2|"D"Aafd "A"e2 cA|"D"d2 f2 "Bm"defd|"Em"Beed "A"e2 f2|"D"Adde de f2|"D"Aafd "A"e2 cA|"Bm"d2 de "D"f2 ed|"A7"egfe "D"d2 ||
fg|"D"afAd f2 A2 |"Bm"defd "A"cecA|"D"d2 f2 "Bm"defd|"Em"Beed "A"e2 fg|"D"afAd f2 A2|"D"defd "A"cecA|"D"d2 de "G"f2 ed|"A"egfe "D"d2 ||
fe|"D"d2 dB A2 AB|"D"A2 af "A"egfe|"D"d2 f2 "Bm"defd|"Em"Beed "A"e2 fe|"D"d2 dB A2 AB|"D"A2 af "A"egfe|"Bm"d2 de "D"f2 ed|"A"egfe "D"d2 ||
fg|"D"a2 af Aa f2|"D"Aaaf "A"egfe|"D"d2 f2 "Bm"defd|"Em"Beed "A"e2 fg|"D"a2 af Aa f2|"D"Aaaf "A"egfe|"D"d2 de "G"f2 ed|"A7"egfe "D"d2 |]

%%sep 2 1 500
%%sep 1 1 500

